Newaita-dark/actions/32/align-horizontal-left-out.svg

<svg height="32" viewBox="0 0 32 32" width="32" xmlns="http://www.w3.org/2000/svg"><g fill="#e0e0e0"><path d="m15.875 29.355469c-.363281 0-.660156-.292969-.660156-.660157v-25.136718c0-.367188.296875-.664063.660156-.664063.367188 0 .664062.296875.664062.664063v25.136718c0 .367188-.296874.660157-.664062.660157zm0 0"/><path d="m29.105469 20.09375c0-1.464844-1.179688-2.644531-2.644531-2.644531h-3.96875c-1.464844 0-2.648438 1.179687-2.648438 2.644531v3.972656c0 1.464844 1.183594 2.644532 2.648438 2.644532h3.96875c1.464843 0 2.644531-1.179688 2.644531-2.644532zm-2.644531.664062v2.644532c0 .367187-.296876.664062-.660157.664062h-2.648437c-.367188 0-.660156-.296875-.660156-.664062v-2.644532c0-.367187.292968-.664062.660156-.664062h2.648437c.363281 0 .660157.296875.660157.664062zm0 0"/><path d="m29.105469 8.1875c0-1.464844-1.179688-2.644531-2.644531-2.644531h-5.292969c-1.464844 0-2.644531 1.179687-2.644531 2.644531v3.96875c0 1.46875 1.179687 2.648438 2.644531 2.648438h5.292969c1.464843 0 2.644531-1.179688 2.644531-2.648438zm-2.644531.664062v2.644532c0 .367187-.296876.660156-.660157.660156h-3.96875c-.367187 0-.664062-.292969-.664062-.660156v-2.644532c0-.367187.296875-.664062.664062-.664062h3.96875c.363281 0 .660157.296875.660157.664062zm0 0"/><path d="m10.585938 26.710938c1.464843 0 2.644531-1.179688 2.644531-2.644532v-5.292968c0-1.464844-1.179688-2.648438-2.644531-2.648438h-3.972657c-1.464843 0-2.644531 1.183594-2.644531 2.648438v5.292968c0 1.464844 1.179688 2.644532 2.644531 2.644532zm0 0"/></g></svg>

<?xml version="1.0" encoding="UTF-8"?>
<svg xmlns="http://www.w3.org/2000/svg" xmlns:xlink="http://www.w3.org/1999/xlink" width="32px" height="32px" viewBox="0 0 32 32" version="1.1">
<g id="surface1">
<path style=" stroke:none;fill-rule:nonzero;fill:rgb(87.843138%,87.843138%,87.843138%);fill-opacity:1;" d="M 15.875 29.355469 C 15.511719 29.355469 15.214844 29.0625 15.214844 28.695312 L 15.214844 3.558594 C 15.214844 3.191406 15.511719 2.894531 15.875 2.894531 C 16.242188 2.894531 16.539062 3.191406 16.539062 3.558594 L 16.539062 28.695312 C 16.539062 29.0625 16.242188 29.355469 15.875 29.355469 Z M 15.875 29.355469 "/>
<path style=" stroke:none;fill-rule:nonzero;fill:rgb(87.843138%,87.843138%,87.843138%);fill-opacity:1;" d="M 29.105469 20.09375 C 29.105469 18.628906 27.925781 17.449219 26.460938 17.449219 L 22.492188 17.449219 C 21.027344 17.449219 19.84375 18.628906 19.84375 20.09375 L 19.84375 24.066406 C 19.84375 25.53125 21.027344 26.710938 22.492188 26.710938 L 26.460938 26.710938 C 27.925781 26.710938 29.105469 25.53125 29.105469 24.066406 Z M 26.460938 20.757812 L 26.460938 23.402344 C 26.460938 23.769531 26.164062 24.066406 25.800781 24.066406 L 23.152344 24.066406 C 22.785156 24.066406 22.492188 23.769531 22.492188 23.402344 L 22.492188 20.757812 C 22.492188 20.390625 22.785156 20.09375 23.152344 20.09375 L 25.800781 20.09375 C 26.164062 20.09375 26.460938 20.390625 26.460938 20.757812 Z M 26.460938 20.757812 "/>
<path style=" stroke:none;fill-rule:nonzero;fill:rgb(87.843138%,87.843138%,87.843138%);fill-opacity:1;" d="M 29.105469 8.1875 C 29.105469 6.722656 27.925781 5.542969 26.460938 5.542969 L 21.167969 5.542969 C 19.703125 5.542969 18.523438 6.722656 18.523438 8.1875 L 18.523438 12.15625 C 18.523438 13.625 19.703125 14.804688 21.167969 14.804688 L 26.460938 14.804688 C 27.925781 14.804688 29.105469 13.625 29.105469 12.15625 Z M 26.460938 8.851562 L 26.460938 11.496094 C 26.460938 11.863281 26.164062 12.15625 25.800781 12.15625 L 21.832031 12.15625 C 21.464844 12.15625 21.167969 11.863281 21.167969 11.496094 L 21.167969 8.851562 C 21.167969 8.484375 21.464844 8.1875 21.832031 8.1875 L 25.800781 8.1875 C 26.164062 8.1875 26.460938 8.484375 26.460938 8.851562 Z M 26.460938 8.851562 "/>
<path style=" stroke:none;fill-rule:nonzero;fill:rgb(87.843138%,87.843138%,87.843138%);fill-opacity:1;" d="M 10.585938 26.710938 C 12.050781 26.710938 13.230469 25.53125 13.230469 24.066406 L 13.230469 18.773438 C 13.230469 17.308594 12.050781 16.125 10.585938 16.125 L 6.613281 16.125 C 5.148438 16.125 3.96875 17.308594 3.96875 18.773438 L 3.96875 24.066406 C 3.96875 25.53125 5.148438 26.710938 6.613281 26.710938 Z M 10.585938 26.710938 "/>
</g>
</svg>
